models/lut/MOODY_1_Colorless_Dark.cube
#Created by: Adobe Photoshop Export Color Lookup Plugin
TITLE "Untitled-1"
#LUT size
LUT_3D_SIZE 5
#data domain
#LUT data points
DOMAIN_MIN 0.000000 0.000000 0.000000
DOMAIN_MAX 0.903226 0.903226 0.903226
0.077301 0.102936 0.148743
0.187195 0.095490 0.142365
0.296570 0.100769 0.127472
0.401733 0.110565 0.125458
0.530914 0.139618 0.141449
0.067474 0.191223 0.127045
0.175690 0.185455 0.112579
0.288544 0.183685 0.121918
0.406006 0.194214 0.128784
0.537445 0.224915 0.151001
0.088501 0.297882 0.130768
0.170929 0.299225 0.118134
0.299866 0.302734 0.124420
0.431946 0.316040 0.143494
0.575226 0.354309 0.181671
0.171234 0.460327 0.182617
0.249359 0.468445 0.174530
0.357788 0.477722 0.171295
0.509430 0.498993 0.187836
0.677307 0.548157 0.234314
0.356720 0.735229 0.307953
0.430359 0.743500 0.307007
0.538177 0.764343 0.304199
0.696808 0.805786 0.330139
0.881561 0.860596 0.372833
0.056061 0.097260 0.265045
0.173920 0.097260 0.245544
0.282837 0.104034 0.232330
0.396210 0.115784 0.232025
0.521851 0.140900 0.238403
0.066833 0.191223 0.231201
0.162537 0.183685 0.230560
0.277100 0.188293 0.232971
0.394897 0.195984 0.231873
0.534760 0.225403 0.245239
0.091583 0.295563 0.233643
0.171600 0.298553 0.230377
0.297638 0.303833 0.221741
0.424194 0.317139 0.243225
0.570190 0.353149 0.272980
0.171722 0.459869 0.278137
0.247284 0.464325 0.275452
0.356659 0.478271 0.266785
0.509766 0.505035 0.281281
0.677216 0.551208 0.324280
0.358459 0.730194 0.393951
0.439636 0.742706 0.398376
0.543457 0.765076 0.397064
0.695557 0.807495 0.417297
0.882965 0.862885 0.458160
0.063538 0.093750 0.384460
0.171509 0.095062 0.365814
0.275757 0.106476 0.338684
0.384460 0.118073 0.335449
0.514343 0.148193 0.350616
0.032684 0.186523 0.355499
0.147369 0.184357 0.353760
0.270752 0.190125 0.336487
0.388153 0.200104 0.336700
0.527771 0.231262 0.357635
0.089172 0.296234 0.335663
0.175537 0.299225 0.336304
0.286163 0.305573 0.347839
0.416138 0.322906 0.361145
0.565125 0.360718 0.384399
0.180145 0.460999 0.385803
0.259735 0.466705 0.392670
0.363129 0.481323 0.398163
0.505463 0.504883 0.401215
0.674316 0.559631 0.448700
0.384308 0.734283 0.513245
0.457306 0.740173 0.516876
0.563049 0.769470 0.528625
0.696747 0.811829 0.534637
0.880890 0.866302 0.576599
0.070465 0.092010 0.490265
0.160919 0.095551 0.483429
0.273773 0.103607 0.459473
0.383514 0.122101 0.436432
0.515167 0.155151 0.455933
0.050964 0.185455 0.474274
0.145905 0.184357 0.470428
0.270905 0.187836 0.459625
0.388611 0.202881 0.445313
0.527252 0.240479 0.461639
0.076965 0.301422 0.450073
0.160248 0.303650 0.457733
0.279785 0.309570 0.466309
0.417480 0.326996 0.463928
0.569061 0.368744 0.494202
0.191162 0.467957 0.488861
0.271454 0.473022 0.493439
0.378510 0.487579 0.504669
0.507538 0.514191 0.529877
0.676331 0.568146 0.577454
0.394379 0.743683 0.627869
0.469666 0.750671 0.629089
0.576202 0.772583 0.647400
0.718018 0.822083 0.682648
0.892334 0.878876 0.713501
0.068237 0.094391 0.598480
0.158783 0.095703 0.593597
0.268951 0.103333 0.582611
0.391113 0.124481 0.566162
0.521973 0.165070 0.563324
0.045105 0.185608 0.588379
0.144775 0.186523 0.588989
0.269867 0.188995 0.583923
0.399994 0.208160 0.572418
0.533356 0.250122 0.574615
0.059784 0.306213 0.588776
0.157349 0.310638 0.587952
0.284241 0.316986 0.596771
0.426270 0.335693 0.600037
0.580414 0.383881 0.612427
0.204620 0.479980 0.609070
0.278076 0.483032 0.612305
0.379913 0.502686 0.638641
0.514526 0.528625 0.663574
0.690125 0.583466 0.692566
0.420380 0.766205 0.745728
0.497223 0.770508 0.748474
0.601837 0.795776 0.768372
0.739136 0.836792 0.800537
0.899872 0.892914 0.853394
