models/lut/MOODY_1_Colorless_Dark.cube
#Created by: Adobe Photoshop Export Color Lookup Plugin
TITLE "Untitled-1"
#LUT size
LUT_3D_SIZE 32
#data domain
DOMAIN_MIN 0.0 0.0 0.0
DOMAIN_MAX 1.0 1.0 1.0
#LUT data points
0.077301 0.102936 0.148743
0.087494 0.101471 0.147247
0.098206 0.099915 0.145782
0.115723 0.096954 0.144318
0.133514 0.094604 0.143219
0.152527 0.096069 0.144684
0.171021 0.096954 0.145325
0.187195 0.095490 0.142365
0.203369 0.094788 0.139801
0.219452 0.096252 0.138306
0.235077 0.097260 0.135925
0.249664 0.097260 0.131500
0.264893 0.097839 0.128784
0.281097 0.099304 0.128784
0.296570 0.100769 0.127472
0.311188 0.102234 0.124512
0.325012 0.102936 0.123108
0.338104 0.102936 0.123108
0.353638 0.103760 0.123108
0.371185 0.105255 0.123108
0.386993 0.107605 0.123993
0.401733 0.110565 0.125458
0.418365 0.114502 0.128937
0.435944 0.118896 0.133362
0.453491 0.122314 0.134491
0.471039 0.125336 0.134491
0.491058 0.129517 0.136841
0.511688 0.133911 0.139801
0.530914 0.139618 0.141449
0.549927 0.145508 0.142914
0.570435 0.152771 0.145782
0.591034 0.160126 0.148743
0.074249 0.113159 0.147247
0.091949 0.113159 0.144318
0.102325 0.111694 0.142914
0.115723 0.110107 0.142853
0.133514 0.107544 0.141541
0.152527 0.107727 0.141754
0.170441 0.108643 0.142670
0.184265 0.107147 0.140900
0.201172 0.105682 0.137939
0.219452 0.104980 0.135376
0.235077 0.106445 0.133453
0.249664 0.107452 0.130005
0.264313 0.108582 0.127869
0.279541 0.110962 0.128784
0.295044 0.111115 0.127472
0.309723 0.110962 0.124512
0.324280 0.113159 0.123840
0.338104 0.114624 0.124573
0.352844 0.114624 0.123749
0.369720 0.115448 0.123108
0.388245 0.117798 0.125793
0.404663 0.120758 0.128418
0.419312 0.123688 0.127869
0.435944 0.127625 0.130402
0.454590 0.132141 0.132629
0.472534 0.135529 0.132996
0.488983 0.138489 0.135376
0.508728 0.142639 0.138306
0.530518 0.148346 0.141296
0.549927 0.154236 0.142914
0.571808 0.162872 0.149933
0.592529 0.170319 0.153137
0.071045 0.123535 0.145599
0.088715 0.123444 0.142670
0.106354 0.123352 0.139709
0.119507 0.121887 0.139709
0.133392 0.120605 0.139801
0.152435 0.120605 0.139801
0.170349 0.120422 0.139618
0.183594 0.118927 0.138153
0.198120 0.117462 0.136292
0.217163 0.115997 0.133362
0.234955 0.115479 0.130676
0.249573 0.116943 0.127747
0.264404 0.118896 0.126404
0.279022 0.121826 0.127869
0.293579 0.122711 0.127350
0.308289 0.121216 0.124420
0.323029 0.122101 0.123749
0.337524 0.125000 0.125183
0.352936 0.126404 0.125336
0.369019 0.126404 0.123840
0.386658 0.128113 0.125793
0.405823 0.131042 0.130219
0.422058 0.133911 0.130646
0.436707 0.136871 0.129181
0.454498 0.140961 0.130066
0.473511 0.145477 0.131531
0.490448 0.148895 0.134125
0.506622 0.151825 0.137054
0.527863 0.157349 0.140076
0.549835 0.163239 0.143036
0.571899 0.171600 0.149841
0.593994 0.180450 0.157166
0.065155 0.136688 0.141174
0.082794 0.135223 0.138245
0.100464 0.135040 0.135284
0.118042 0.133545 0.132355
0.131927 0.132263 0.132538
0.150970 0.132263 0.133911
0.168884 0.132263 0.133911
0.182129 0.132080 0.133728
0.196075 0.130615 0.131866
0.212769 0.129150 0.128937
0.231293 0.128632 0.127411
0.248108 0.130096 0.127747
0.263885 0.131561 0.125946
0.280579 0.133514 0.126404
0.294525 0.133789 0.125854
0.308289 0.131439 0.122864
0.323669 0.132935 0.122192
0.339020 0.136658 0.123718
0.354401 0.138763 0.125977
0.370483 0.139526 0.126801
0.385742 0.140442 0.127136
0.402893 0.142700 0.130219
0.420929 0.144745 0.130646
0.436707 0.147156 0.129181
0.453491 0.151184 0.132080
0.472046 0.155670 0.134491
0.491150 0.161285 0.135956
0.508087 0.165009 0.138519
0.529327 0.170502 0.142761
0.551300 0.176392 0.145966
0.573395 0.180878 0.148926
0.595459 0.189178 0.155701
0.060425 0.149841 0.136749
0.077484 0.148560 0.134003
0.095154 0.147186 0.131256
0.112701 0.145813 0.128510
0.130066 0.144135 0.125153
0.149109 0.144135 0.126648
0.167603 0.144135 0.128021
0.180847 0.144135 0.128021
0.195007 0.143951 0.127808
0.211090 0.142487 0.124878
0.227264 0.141754 0.123352
0.244843 0.143219 0.124817
0.261841 0.144318 0.125732
0.279510 0.145782 0.125732
0.295898 0.146027 0.124969
0.309052 0.143097 0.121918
0.323853 0.143341 0.121033
0.339844 0.147675 0.122589
0.355469 0.150452 0.124695
0.371582 0.151947 0.127655
0.387390 0.153595 0.129517
0.402100 0.155060 0.130981
0.418762 0.156586 0.130646
0.436310 0.158173 0.129181
0.453857 0.161835 0.132233
0.471436 0.166260 0.136688
0.490051 0.171875 0.138885
0.509216 0.177765 0.140381
0.530792 0.183655 0.144409
0.552765 0.189545 0.148834
0.574677 0.194427 0.151855
0.596741 0.198853 0.154816
0.063354 0.163086 0.132355
0.076599 0.163086 0.130890
0.093689 0.161896 0.128296
0.111237 0.161896 0.128296
0.128601 0.160339 0.125153
0.144714 0.157288 0.119171
0.163483 0.157288 0.120636
0.180847 0.157288 0.122040
0.195190 0.157288 0.122406
0.212555 0.157074 0.123322
0.228180 0.156097 0.121826
0.243347 0.156372 0.123352
0.259216 0.156708 0.124268
0.273529 0.155975 0.124268
0.291840 0.158112 0.124939
0.309052 0.159180 0.124969
0.324432 0.157745 0.123474
0.341309 0.159363 0.124054
0.355713 0.162170 0.125580
0.370117 0.163727 0.127655
0.388062 0.166107 0.128784
0.405029 0.168304 0.129517
0.421692 0.169800 0.129974
0.439270 0.171295 0.129181
0.456818 0.174988 0.133148
0.474365 0.179413 0.138153
0.492035 0.185028 0.141357
0.510681 0.190887 0.143311
0.532288 0.196777 0.147369
0.554260 0.202698 0.151764
0.574951 0.210022 0.154816
0.596741 0.215057 0.157745
0.066010 0.176605 0.128510
0.078674 0.176300 0.126709
0.092194 0.176392 0.125153
0.109772 0.176605 0.124786
0.126923 0.176392 0.124573
0.142944 0.173462 0.118896
0.159607 0.170715 0.114044
0.177246 0.170715 0.115540
0.194336 0.170441 0.116730
0.211884 0.170441 0.118195
0.229645 0.170441 0.119965
0.244263 0.170441 0.121552
0.258606 0.170441 0.122772
0.271729 0.168976 0.122772
0.286713 0.168640 0.123474
0.305878 0.171570 0.124939
0.324127 0.173859 0.126221
0.341553 0.173859 0.126221
0.357208 0.174713 0.127045
0.370331 0.176270 0.128510
0.386871 0.178131 0.128784
0.406006 0.181061 0.128784
0.424072 0.183868 0.129639
0.441650 0.185333 0.129639
0.459747 0.188416 0.132874
0.477325 0.192841 0.138763
0.495239 0.198425 0.142548
0.512909 0.204346 0.145508
0.534027 0.210236 0.149994
0.556000 0.216125 0.154449
0.576416 0.223175 0.157745
0.597015 0.230621 0.160706
0.067474 0.191223 0.127045
0.077698 0.189728 0.123993
0.090637 0.189575 0.122101
0.108276 0.191040 0.119171
0.125458 0.191040 0.118591
0.140106 0.189575 0.117126
0.156647 0.186920 0.112579
0.175690 0.185455 0.112579
0.192596 0.185059 0.113678
0.207489 0.183685 0.113800
0.225983 0.183685 0.115723
0.245728 0.183685 0.118500
0.260376 0.184265 0.120026
0.274689 0.185150 0.121216
0.288544 0.183685 0.121918
0.304413 0.183350 0.123474
0.322662 0.187012 0.125671
0.340088 0.190063 0.127686
0.356781 0.190857 0.128510
0.371796 0.192352 0.129974
0.387726 0.192963 0.129639
0.406006 0.194214 0.128784
0.424072 0.199158 0.131775
0.441650 0.202881 0.134033
0.461395 0.204376 0.134033
0.480255 0.207458 0.137299
0.499115 0.213074 0.141998
0.517303 0.218933 0.145508
0.537445 0.224915 0.151001
0.558960 0.230835 0.155914
0.578278 0.236725 0.160309
0.598511 0.243774 0.163635
0.068573 0.205444 0.125946
0.079193 0.204742 0.123291
0.089478 0.203247 0.120239
0.105957 0.204163 0.117279
0.123810 0.205444 0.114349
0.139008 0.204163 0.112671
0.154175 0.202972 0.111786
0.173126 0.201599 0.111877
0.192169 0.200134 0.111511
0.206879 0.198669 0.111511
0.221954 0.197662 0.111694
0.242462 0.197662 0.114624
0.261444 0.197845 0.117401
0.276062 0.199310 0.118866
0.291473 0.199860 0.120758
0.306213 0.198364 0.122314
0.321960 0.199127 0.124207
0.339355 0.203491 0.127106
0.356049 0.206268 0.129608
0.372131 0.207733 0.131073
0.388794 0.208679 0.131866
0.406494 0.208679 0.130402
0.424835 0.213043 0.132538
0.442383 0.218933 0.136963
0.461395 0.221558 0.138489
0.481903 0.223022 0.138489
0.501648 0.227692 0.142029
0.520782 0.233582 0.146454
0.541504 0.239532 0.151398
0.561981 0.245514 0.157288
0.582733 0.252167 0.162170
0.601868 0.258057 0.166626
0.068573 0.218597 0.125946
0.080353 0.220062 0.124451
0.091034 0.219360 0.121826
0.102722 0.217896 0.118774
0.119385 0.218597 0.115814
0.138428 0.218597 0.112885
0.154175 0.217590 0.111786
0.171722 0.217590 0.113251
0.190704 0.216217 0.112976
0.209839 0.214752 0.111511
0.224518 0.213745 0.111511
0.239532 0.213745 0.111694
0.258881 0.213745 0.114624
0.276062 0.213928 0.117401
0.292053 0.214752 0.119568
0.309143 0.214447 0.122314
0.324524 0.214508 0.123840
0.340820 0.216644 0.125641
0.357513 0.219391 0.128540
0.373627 0.220886 0.131073
0.389771 0.222351 0.133453
0.406494 0.223297 0.134796
0.426056 0.228271 0.136353
0.445343 0.235016 0.139893
0.462891 0.237640 0.142120
0.481903 0.239105 0.142883
0.502472 0.243042 0.146454
0.522247 0.248322 0.150879
0.543884 0.254181 0.153992
0.564941 0.260132 0.158752
0.589661 0.268799 0.164734
0.610718 0.275635 0.169647
0.070496 0.232208 0.125946
0.081757 0.233704 0.124451
0.093628 0.235077 0.123199
0.105682 0.233978 0.121307
0.117340 0.232697 0.117676
0.134949 0.232697 0.113892
0.153442 0.232391 0.111786
0.170807 0.232208 0.113251
0.188751 0.232208 0.114716
0.207886 0.230835 0.113434
0.226990 0.230316 0.111969
0.241608 0.230316 0.111969
0.257355 0.229828 0.112152
0.274933 0.229828 0.115112
0.291565 0.230316 0.117584
0.309235 0.230316 0.120636
0.326996 0.230591 0.123840
0.342957 0.232056 0.125275
0.359467 0.233490 0.127533
0.375549 0.234955 0.130493
0.392181 0.236908 0.132965
0.408386 0.238373 0.135925
0.427979 0.243408 0.140747
0.448486 0.250763 0.143677
0.466339 0.254700 0.146027
0.483887 0.256165 0.147491
0.504364 0.260071 0.151337
0.524963 0.264587 0.155762
0.546783 0.270782 0.158905
0.568756 0.276642 0.161865
0.593567 0.284851 0.167603
0.618591 0.293701 0.173615
0.076477 0.246826 0.125946
0.086670 0.248291 0.124451
0.098022 0.249664 0.123199
0.111176 0.249664 0.124664
0.123230 0.248779 0.122192
0.134918 0.248779 0.114746
0.151947 0.248505 0.111786
0.168030 0.247040 0.113251
0.185822 0.246826 0.114716
0.204956 0.246826 0.116180
0.224060 0.246399 0.114929
0.243073 0.247864 0.113434
0.258820 0.247314 0.113434
0.276398 0.245941 0.113647
0.292664 0.246582 0.115906
0.307770 0.247864 0.117584
0.326080 0.247864 0.121368
0.344452 0.248108 0.125275
0.361298 0.249573 0.127533
0.378510 0.251068 0.130493
0.395569 0.253448 0.132538
0.412781 0.255951 0.134460
0.432922 0.260468 0.141357
0.454346 0.266937 0.148102
0.471649 0.272125 0.151062
0.488403 0.275330 0.153381
0.509552 0.279144 0.157227
0.530853 0.283630 0.161652
0.552734 0.290619 0.164856
0.574738 0.297150 0.167847
0.599487 0.304535 0.173553
0.624451 0.312836 0.179504
0.081299 0.262634 0.126495
0.092072 0.263519 0.125031
0.102356 0.264893 0.123657
0.115021 0.264893 0.124664
0.127594 0.264893 0.125549
0.138519 0.264893 0.119232
0.151337 0.264893 0.112335
0.167694 0.263733 0.112671
0.183807 0.263000 0.114532
0.202576 0.263184 0.116180
0.222626 0.263184 0.117676
0.241852 0.264557 0.116394
0.260345 0.265472 0.116089
0.277893 0.263977 0.116089
0.296417 0.263855 0.115570
0.311127 0.265320 0.117065
0.326294 0.266602 0.119476
0.345184 0.266602 0.123932
0.365082 0.267426 0.127533
0.382629 0.268890 0.130493
0.400208 0.271271 0.134796
0.417847 0.274200 0.136261
0.437927 0.278625 0.141022
0.459900 0.284607 0.149872
0.478119 0.288849 0.154327
0.494293 0.293274 0.157288
0.515137 0.299438 0.162598
0.537109 0.303833 0.166992
0.559174 0.310242 0.171295
0.581268 0.317627 0.174347
0.606598 0.325592 0.180634
0.631531 0.333038 0.186523
0.084229 0.280273 0.127960
0.095917 0.280273 0.126495
0.106781 0.281097 0.125122
0.118439 0.281097 0.125122
0.130554 0.281097 0.125549
0.139282 0.281097 0.122498
0.151337 0.281097 0.116760
0.168884 0.281097 0.112335
0.185303 0.280670 0.113068
0.201477 0.282135 0.116028
0.221130 0.282318 0.117676
0.243134 0.282318 0.119141
0.261810 0.283142 0.119049
0.279449 0.283142 0.120605
0.298370 0.282990 0.119904
0.318481 0.284454 0.118530
0.333130 0.285919 0.120789
0.348114 0.287201 0.123932
0.368744 0.288025 0.127533
0.390076 0.289490 0.130493
0.407654 0.291870 0.136169
0.425232 0.294800 0.142181
0.444885 0.298767 0.145630
0.465881 0.303650 0.151337
0.484589 0.307343 0.155792
0.501648 0.310822 0.158752
0.522522 0.318878 0.165344
0.544495 0.325928 0.171509
0.566559 0.331604 0.177216
0.588623 0.338196 0.181732
0.614838 0.346954 0.188812
0.640472 0.355042 0.195343
0.088501 0.297882 0.130768
0.098846 0.297882 0.128632
0.110535 0.297974 0.127258
0.122192 0.298553 0.127258
0.134247 0.298553 0.127075
0.144867 0.298553 0.124542
0.154480 0.298828 0.121796
0.170929 0.299225 0.118134
0.188507 0.299225 0.114868
0.204956 0.300415 0.117249
0.221558 0.301422 0.118744
0.242981 0.301422 0.119843
0.264404 0.301971 0.121887
0.282257 0.302063 0.123535
0.299866 0.302734 0.124420
0.320374 0.304199 0.122864
0.341187 0.305664 0.122925
0.355713 0.307098 0.125916
0.372345 0.309235 0.129547
0.394440 0.310730 0.132477
0.414398 0.313080 0.136169
0.431946 0.316040 0.143494
0.451599 0.319366 0.150879
0.472168 0.323761 0.155273
0.491852 0.328400 0.157928
0.509399 0.331390 0.160889
0.530579 0.337769 0.167480
0.552551 0.346680 0.174927
0.575226 0.354309 0.181671
0.597321 0.360199 0.187561
0.622192 0.367554 0.194183
0.648682 0.376373 0.201538
0.094391 0.315460 0.135193
0.103119 0.315460 0.132233
0.113464 0.315552 0.130188
0.125153 0.317017 0.130188
0.137207 0.317596 0.130005
0.151794 0.317596 0.128540
0.163300 0.317871 0.126312
0.176575 0.319336 0.124817
0.192993 0.319702 0.122314
0.210571 0.319702 0.122314
0.227448 0.320435 0.123260
0.245026 0.320435 0.121796
0.265900 0.321014 0.123444
0.286499 0.322479 0.126404
0.304321 0.323242 0.127350
0.321838 0.324707 0.127350
0.343109 0.326172 0.127350
0.364655 0.327606 0.128876
0.380829 0.329895 0.132629
0.398834 0.332703 0.136902
0.419067 0.335083 0.139862
0.437836 0.338013 0.143494
0.457458 0.341003 0.151886
0.478088 0.344391 0.159698
0.498596 0.349884 0.161926
0.518250 0.354919 0.163818
0.539459 0.360229 0.170410
0.561493 0.367188 0.177887
0.584747 0.376068 0.185242
0.607635 0.383636 0.191986
0.631073 0.389618 0.197876
0.656036 0.396973 0.204468
0.102478 0.334473 0.141083
0.112762 0.335968 0.139618
0.121399 0.335876 0.136749
0.131042 0.336029 0.136108
0.142944 0.337494 0.135559
0.157043 0.338043 0.132965
0.171631 0.338043 0.131195
0.185333 0.339081 0.129272
0.199280 0.341309 0.128540
0.216492 0.342438 0.128937
0.234558 0.341980 0.128448
0.252411 0.341705 0.126984
0.268829 0.342285 0.126648
0.288696 0.343750 0.129425
0.308594 0.344543 0.131683
0.326233 0.345947 0.131775
0.346802 0.348877 0.134033
0.368652 0.350342 0.135468
0.388916 0.351868 0.136292
0.406464 0.354797 0.140717
0.426483 0.357758 0.144257
0.445496 0.360718 0.147186
0.465576 0.365143 0.153381
0.486145 0.368195 0.162201
0.506744 0.372620 0.167114
0.527222 0.378479 0.168579
0.550446 0.385162 0.175598
0.572540 0.391052 0.183044
0.596619 0.399536 0.190399
0.620056 0.408356 0.197784
0.642853 0.414459 0.203796
0.666382 0.420441 0.209686
0.112640 0.354767 0.148315
0.124390 0.357727 0.148315
0.134521 0.359070 0.146912
0.141693 0.357605 0.145447
0.151611 0.357819 0.144257
0.164856 0.359283 0.139832
0.178986 0.359833 0.136993
0.193604 0.359833 0.134033
0.208008 0.361633 0.132904
0.224060 0.366150 0.134369
0.241791 0.366730 0.134247
0.260925 0.365265 0.132782
0.277618 0.365570 0.132446
0.292236 0.367065 0.133911
0.311493 0.367859 0.136017
0.330536 0.367859 0.137512
0.351135 0.370758 0.139801
0.374451 0.375122 0.144165
0.394775 0.376556 0.144806
0.413727 0.378113 0.145081
0.434052 0.381073 0.148590
0.455750 0.384003 0.151520
0.475769 0.388947 0.157471
0.496307 0.394287 0.165100
0.516907 0.398376 0.170746
0.537476 0.403168 0.174469
0.561554 0.410309 0.181885
0.585571 0.417267 0.190277
0.610199 0.425720 0.197662
0.634613 0.434570 0.205017
0.656799 0.440643 0.211090
0.679535 0.446564 0.217041
0.123718 0.378510 0.155609
0.134644 0.379822 0.154022
0.146301 0.382660 0.154114
0.154938 0.382629 0.154053
0.162872 0.381348 0.152588
0.176056 0.382202 0.149414
0.188995 0.383667 0.145264
0.202576 0.384186 0.142334
0.217590 0.384583 0.140137
0.233704 0.388184 0.141205
0.249817 0.391266 0.141693
0.268250 0.390106 0.140228
0.287354 0.390930 0.140472
0.302643 0.392883 0.142181
0.319305 0.393005 0.142334
0.338379 0.392883 0.143494
0.358826 0.395172 0.145721
0.382080 0.399506 0.149994
0.405518 0.403900 0.154388
0.424561 0.405365 0.154388
0.444580 0.407745 0.156250
0.466644 0.410675 0.159210
0.489349 0.416443 0.164307
0.509857 0.422333 0.171692
0.531982 0.427124 0.178497
0.552582 0.431549 0.183014
0.575104 0.438385 0.188568
0.600037 0.445862 0.197418
0.625031 0.453705 0.205841
0.650055 0.462555 0.213165
0.675507 0.471039 0.222443
0.697571 0.476929 0.228424
0.135620 0.404999 0.162994
0.145813 0.404999 0.160034
0.156616 0.406219 0.158508
0.166809 0.407684 0.159973
0.176208 0.407837 0.159943
0.189362 0.407837 0.158478
0.202240 0.408691 0.155579
0.213928 0.410156 0.152649
0.227905 0.411072 0.150452
0.244080 0.412537 0.150452
0.260193 0.414703 0.150543
0.276306 0.414703 0.149078
0.294678 0.415833 0.149292
0.313721 0.420258 0.152252
0.331085 0.420868 0.152649
0.350220 0.419403 0.151154
0.370697 0.421539 0.153076
0.392487 0.425995 0.155975
0.415833 0.430389 0.160278
0.439362 0.434784 0.164703
0.459320 0.437164 0.166565
0.479889 0.440125 0.169586
0.502991 0.446045 0.174530
0.526123 0.453217 0.180603
0.548828 0.458038 0.187988
0.571716 0.462433 0.194794
0.593536 0.469330 0.199219
0.616333 0.476776 0.204773
0.641327 0.484131 0.213684
0.666351 0.491974 0.222107
0.694031 0.502197 0.233612
0.719666 0.510803 0.243134
0.151978 0.432373 0.172211
0.158508 0.433289 0.171051
0.168823 0.433167 0.168335
0.179901 0.433044 0.168976
0.190277 0.434509 0.169708
0.202698 0.435211 0.166779
0.216980 0.436066 0.165619
0.231750 0.438782 0.163910
0.242310 0.439484 0.161346
0.255310 0.439911 0.160797
0.272919 0.441864 0.160797
0.290283 0.442719 0.159790
0.306396 0.442719 0.158295
0.324768 0.446136 0.160248
0.344452 0.451233 0.163849
0.363800 0.450958 0.163330
0.384369 0.450989 0.163361
0.406128 0.455109 0.166107
0.425598 0.458771 0.169830
0.448761 0.463104 0.174255
0.474121 0.466614 0.175964
0.494629 0.469574 0.179016
0.518097 0.476410 0.184875
0.541656 0.483765 0.190765
0.563324 0.489838 0.194122
0.586761 0.494263 0.201508
0.612701 0.502014 0.211060
0.634766 0.509491 0.215485
0.658478 0.515045 0.222870
0.683472 0.522400 0.231781
0.711212 0.533417 0.240662
0.739105 0.543732 0.252441
0.171234 0.460327 0.182617
0.175446 0.461792 0.182617
0.182068 0.462616 0.181671
0.193848 0.461121 0.181671
0.205078 0.460999 0.181580
0.216766 0.462463 0.177155
0.230347 0.464020 0.174530
0.249359 0.468445 0.174530
0.263000 0.470428 0.173187
0.270264 0.468933 0.171722
0.284698 0.469849 0.171234
0.305267 0.472778 0.171234
0.322693 0.473633 0.170166
0.338776 0.473633 0.168701
0.357788 0.477722 0.171295
0.378296 0.483582 0.175720
0.399078 0.484833 0.176727
0.420929 0.486298 0.178162
0.440430 0.489594 0.181702
0.457977 0.492645 0.186127
0.482941 0.496063 0.187836
0.509430 0.498993 0.187836
0.533020 0.505920 0.193817
0.557922 0.514679 0.201080
0.579224 0.520935 0.203674
0.600098 0.526642 0.205902
0.627197 0.534698 0.216919
0.654022 0.543335 0.227325
0.677307 0.548157 0.234314
0.701141 0.553314 0.242096
0.728912 0.564819 0.249542
0.756866 0.576111 0.258331
0.186401 0.491302 0.192932
0.197662 0.492767 0.194946
0.202362 0.494141 0.194855
0.214142 0.493561 0.193939
0.225708 0.492310 0.193756
0.236572 0.492950 0.190979
0.248810 0.494995 0.187103
0.265717 0.499390 0.186401
0.282837 0.502319 0.186401
0.291962 0.500854 0.185547
0.302551 0.501282 0.184052
0.322052 0.504730 0.183563
0.340942 0.506531 0.182983
0.357056 0.506531 0.181519
0.375153 0.508514 0.182678
0.395630 0.514069 0.187103
0.413849 0.518433 0.189240
0.434662 0.520111 0.190460
0.459076 0.523254 0.193512
0.477814 0.526489 0.197937
0.499023 0.532196 0.203308
0.525330 0.535431 0.203705
0.550751 0.538361 0.205688
0.575775 0.547180 0.213074
0.599518 0.554840 0.217041
0.620026 0.560730 0.218536
0.646515 0.570068 0.227325
0.674500 0.579010 0.239197
0.702515 0.587982 0.248199
0.725952 0.592407 0.255554
0.754639 0.601715 0.265900
0.782593 0.613495 0.273285
0.199646 0.523651 0.203247
0.214264 0.525146 0.206177
0.226013 0.526520 0.208099
0.237793 0.526520 0.206635
0.249359 0.526123 0.205536
0.259552 0.526123 0.204041
0.270996 0.527374 0.201813
0.285614 0.531799 0.200348
0.300598 0.534698 0.199646
0.312286 0.533203 0.199646
0.324707 0.533630 0.198792
0.342285 0.538055 0.197296
0.360077 0.540375 0.196228
0.376282 0.540375 0.194763
0.394379 0.542389 0.195923
0.414886 0.546783 0.200348
0.433075 0.550812 0.202484
0.449036 0.553711 0.202484
0.472321 0.557129 0.205292
0.498810 0.561615 0.209717
0.521210 0.567505 0.215088
0.544769 0.574860 0.221069
0.569977 0.578094 0.223450
0.594910 0.581055 0.226410
0.618835 0.588776 0.230499
0.642181 0.596069 0.233337
0.668732 0.605591 0.241943
0.696686 0.615784 0.252441
0.725830 0.625916 0.261749
0.754028 0.635071 0.270386
0.783081 0.643616 0.281860
0.812134 0.653229 0.292511
0.226105 0.559326 0.216888
0.235229 0.558624 0.219849
0.249664 0.560089 0.222504
0.261353 0.561096 0.221039
0.273132 0.561646 0.220337
0.284302 0.564362 0.222473
0.294220 0.564056 0.220428
0.305603 0.565247 0.217346
0.320953 0.569672 0.215881
0.335510 0.571045 0.215149
0.348602 0.571014 0.215637
0.365540 0.574799 0.215393
0.381378 0.579224 0.213348
0.396515 0.580780 0.211365
0.415344 0.580780 0.211853
0.436279 0.583923 0.215851
0.458282 0.589111 0.220245
0.475983 0.592712 0.221283
0.492859 0.595642 0.222900
0.517609 0.599854 0.227020
0.545898 0.607910 0.232330
0.570190 0.615662 0.238312
0.595703 0.622009 0.243317
0.620697 0.625153 0.246338
0.646790 0.631439 0.249298
0.670349 0.638824 0.252258
0.699646 0.649628 0.262207
0.727600 0.660065 0.272522
0.754639 0.669342 0.279388
0.783966 0.679657 0.288300
0.814514 0.691833 0.301056
0.843933 0.700684 0.312836
0.257111 0.596130 0.231720
0.264343 0.594666 0.234650
0.273315 0.593933 0.237335
0.284973 0.595428 0.235870
0.296692 0.596985 0.235138
0.308472 0.601410 0.239563
0.319336 0.603821 0.241150
0.328064 0.602325 0.236694
0.340179 0.603516 0.233643
0.357758 0.607941 0.232147
0.373718 0.610748 0.231934
0.389801 0.613678 0.233398
0.405060 0.617493 0.232605
0.418182 0.621918 0.229614
0.435944 0.623474 0.229614
0.458008 0.623474 0.232574
0.480438 0.627380 0.236542
0.503784 0.633270 0.240875
0.522461 0.636963 0.243622
0.540039 0.639893 0.246552
0.566620 0.647644 0.251587
0.596039 0.657959 0.257477
0.622284 0.664703 0.262451
0.648682 0.670593 0.266968
0.674866 0.677094 0.270020
0.701355 0.684540 0.272949
0.730835 0.695435 0.283020
0.761536 0.707123 0.294708
0.788239 0.716248 0.301147
0.815094 0.725372 0.307434
0.845886 0.738434 0.320496
0.876495 0.750824 0.333527
0.288177 0.640045 0.256042
0.296631 0.639771 0.255432
0.303986 0.638367 0.258270
0.313477 0.638763 0.259003
0.325348 0.640411 0.257690
0.338013 0.643829 0.259125
0.350067 0.647400 0.262115
0.361481 0.646851 0.258606
0.371735 0.646149 0.255341
0.387695 0.648987 0.254669
0.402893 0.652466 0.253204
0.416107 0.654694 0.253235
0.434509 0.659332 0.254730
0.451416 0.665009 0.253632
0.466553 0.670074 0.252014
0.487030 0.672180 0.253906
0.507507 0.672913 0.255341
0.529510 0.677460 0.258362
0.552887 0.682556 0.264343
0.571991 0.685883 0.268463
0.595032 0.693390 0.272278
0.623871 0.703705 0.277893
0.650330 0.710022 0.282776
0.676514 0.715729 0.287292
0.707275 0.728241 0.296173
0.734161 0.736176 0.299591
0.760651 0.743561 0.304901
0.791534 0.755341 0.316681
0.822174 0.765747 0.326904
0.848663 0.774689 0.332794
0.879272 0.786530 0.340912
0.910217 0.799774 0.354248
0.319305 0.685669 0.282623
0.328033 0.685669 0.281158
0.336548 0.685486 0.280457
0.345276 0.685486 0.281921
0.354950 0.686035 0.282837
0.368103 0.688995 0.282837
0.381073 0.691559 0.282837
0.394226 0.691559 0.279877
0.407166 0.691772 0.277496
0.421783 0.693329 0.277496
0.435364 0.695251 0.276855
0.445557 0.696716 0.275360
0.461090 0.700653 0.275421
0.483185 0.708008 0.276886
0.502075 0.714325 0.277130
0.519623 0.720215 0.277130
0.538513 0.723053 0.277496
0.557495 0.724518 0.277496
