models/lut/MOODY_1_Colorless_Dark.cube
#Created by: Adobe Photoshop Export Color Lookup Plugin
TITLE "Untitled-1"
#LUT size
LUT_3D_SIZE 8
#data domain
#LUT data points
DOMAIN_MIN 0.000000 0.000000 0.000000
DOMAIN_MAX 0.903226 0.903226 0.903226
0.077301 0.102936 0.148743
0.133514 0.094604 0.143219
0.203369 0.094788 0.139801
0.264893 0.097839 0.128784
0.325012 0.102936 0.123108
0.386993 0.107605 0.123993
0.453491 0.122314 0.134491
0.530914 0.139618 0.141449
0.060425 0.149841 0.136749
0.130066 0.144135 0.125153
0.195007 0.143951 0.127808
0.261841 0.144318 0.125732
0.323853 0.143341 0.121033
0.387390 0.153595 0.129517
0.453857 0.161835 0.132233
0.530792 0.183655 0.144409
0.068573 0.205444 0.125946
0.123810 0.205444 0.114349
0.192169 0.200134 0.111511
0.261444 0.197845 0.117401
0.321960 0.199127 0.124207
0.388794 0.208679 0.131866
0.461395 0.221558 0.138489
0.541504 0.239532 0.151398
0.081299 0.262634 0.126495
0.127594 0.264893 0.125549
0.183807 0.263000 0.114532
0.260345 0.265472 0.116089
0.326294 0.266602 0.119476
0.400208 0.271271 0.134796
0.478119 0.288849 0.154327
0.559174 0.310242 0.171295
0.102478 0.334473 0.141083
0.142944 0.337494 0.135559
0.199280 0.341309 0.128540
0.268829 0.342285 0.126648
0.346802 0.348877 0.134033
0.426483 0.357758 0.144257
0.506744 0.372620 0.167114
0.596619 0.399536 0.190399
0.151978 0.432373 0.172211
0.190277 0.434509 0.169708
0.242310 0.439484 0.161346
0.306396 0.442719 0.158295
0.384369 0.450989 0.163361
0.474121 0.466614 0.175964
0.563324 0.489838 0.194122
0.658478 0.515045 0.222870
0.226105 0.559326 0.216888
0.273132 0.561646 0.220337
0.320953 0.569672 0.215881
0.381378 0.579224 0.213348
0.458282 0.589111 0.220245
0.545898 0.607910 0.232330
0.646790 0.631439 0.249298
0.754639 0.669342 0.279388
0.356720 0.735229 0.307953
0.395477 0.737793 0.307953
0.444672 0.744263 0.305206
0.498169 0.751587 0.300537
0.574921 0.776184 0.305542
0.669189 0.795380 0.324158
0.770782 0.825317 0.344269
0.881561 0.860596 0.372833
0.059662 0.102570 0.213287
0.130066 0.097260 0.198853
0.194611 0.097443 0.195435
0.258209 0.100677 0.189545
0.320068 0.103882 0.183868
0.385773 0.108704 0.179993
0.451294 0.120728 0.187256
0.526306 0.139618 0.192871
0.060577 0.149841 0.192566
0.121338 0.146790 0.192749
0.186096 0.146790 0.190094
0.253296 0.144318 0.184204
0.322723 0.147003 0.181732
0.381989 0.151642 0.180511
0.449921 0.163788 0.184784
0.531097 0.183655 0.196625
0.061737 0.202972 0.189728
0.116028 0.202606 0.186493
0.183624 0.199951 0.173187
0.256134 0.200317 0.178711
0.317963 0.203156 0.183289
0.386017 0.209442 0.185669
0.459045 0.219971 0.191772
0.539032 0.240753 0.203918
0.078827 0.262421 0.187805
0.120178 0.264893 0.181366
0.183624 0.262817 0.168060
0.259949 0.263397 0.173187
0.327637 0.266602 0.174652
0.397369 0.271973 0.187347
0.472260 0.291534 0.202057
0.556061 0.310455 0.216919
0.103638 0.337860 0.196350
0.144287 0.335968 0.190277
0.198730 0.341339 0.185120
0.266724 0.342285 0.181152
0.340881 0.348145 0.180908
0.424530 0.358704 0.195465
0.508057 0.374756 0.214539
0.594299 0.399536 0.239807
0.150909 0.432373 0.223511
0.193115 0.435028 0.220642
0.246460 0.437927 0.216705
0.302338 0.444000 0.208740
0.382721 0.454712 0.215027
0.470947 0.468445 0.226013
0.560852 0.487366 0.240417
0.656189 0.513245 0.269989
0.230621 0.558289 0.268219
0.273315 0.565948 0.274689
0.320862 0.566528 0.264069
0.381226 0.578644 0.265076
0.458771 0.591278 0.267273
0.547974 0.610138 0.279877
0.646423 0.631439 0.297272
0.753571 0.670013 0.325500
0.354065 0.736603 0.354828
0.396912 0.732758 0.354553
0.447540 0.743866 0.351318
0.510193 0.759308 0.353607
0.577637 0.773926 0.349274
0.672943 0.799255 0.371307
0.773346 0.827362 0.393616
0.882935 0.859009 0.419617
0.058685 0.096863 0.283722
0.126862 0.094025 0.272339
0.188568 0.097260 0.259766
0.250244 0.101227 0.250671
0.313629 0.104095 0.245911
0.375031 0.111359 0.244843
0.443878 0.123077 0.245605
0.520691 0.140900 0.254150
0.045593 0.147186 0.268311
0.109741 0.147003 0.265839
0.182861 0.144135 0.253906
0.247192 0.146790 0.248199
0.309082 0.148102 0.247650
0.377838 0.156677 0.246277
0.447083 0.166656 0.246857
0.524536 0.186310 0.255646
0.066895 0.205444 0.245514
0.113373 0.202789 0.245728
0.177155 0.197662 0.243042
0.242279 0.200684 0.246490
0.309296 0.203735 0.248016
0.377747 0.209961 0.247192
0.453491 0.222656 0.253448
0.535126 0.241852 0.265411
0.076721 0.261993 0.246277
0.120392 0.262207 0.246490
0.178680 0.265289 0.248383
0.252319 0.263184 0.235474
0.320221 0.268707 0.241943
0.393372 0.276428 0.251343
0.470642 0.292114 0.266083
0.552643 0.312927 0.280151
0.111084 0.334839 0.255707
0.153992 0.335754 0.258026
0.201416 0.338837 0.254608
0.263702 0.340149 0.241302
0.345673 0.348145 0.246429
0.418823 0.360809 0.258850
0.502533 0.377258 0.278564
0.591064 0.401855 0.300018
0.159882 0.430420 0.285980
0.195496 0.430420 0.285278
0.246002 0.438812 0.281921
0.306213 0.445251 0.275299
0.382355 0.454712 0.276031
0.468445 0.469330 0.282959
0.560852 0.487183 0.300812
0.655609 0.517914 0.328918
0.238617 0.561096 0.335175
0.273193 0.561096 0.333710
0.327820 0.569336 0.337982
0.386230 0.577759 0.329803
0.455109 0.593079 0.324524
0.543945 0.611816 0.339813
0.642181 0.628967 0.353851
0.753601 0.673462 0.386932
0.361084 0.732758 0.412323
0.405518 0.737000 0.416351
0.454987 0.744629 0.416016
0.510101 0.757202 0.414337
0.580170 0.775208 0.415924
0.671112 0.798492 0.426727
0.773834 0.830475 0.448364
0.880066 0.862488 0.473602
0.067413 0.092133 0.351288
0.123993 0.094025 0.346741
0.185699 0.097076 0.329254
0.244904 0.103516 0.310059
0.306610 0.107117 0.307220
0.370544 0.115265 0.304382
0.435059 0.126373 0.307739
0.518127 0.146027 0.320496
0.046906 0.146027 0.333618
0.109344 0.146423 0.333435
0.179810 0.141663 0.326782
0.238831 0.147186 0.309509
0.306061 0.150787 0.304962
0.368805 0.157379 0.305267
0.442291 0.169861 0.311768
0.522156 0.189728 0.320404
0.052429 0.202972 0.313110
0.098938 0.202789 0.315582
0.168793 0.200317 0.316559
0.241119 0.200684 0.304962
0.306427 0.206207 0.309143
0.374512 0.209320 0.309448
0.446411 0.225891 0.315552
0.531189 0.244904 0.327576
0.079010 0.261993 0.302094
0.123230 0.262634 0.304749
0.176575 0.263000 0.300934
0.243774 0.263763 0.306671
0.311737 0.269470 0.312958
0.385742 0.277313 0.319000
0.463715 0.291077 0.324829
0.549866 0.316803 0.342743
0.103851 0.336731 0.318054
0.149597 0.337494 0.316528
0.204224 0.340759 0.323578
0.261597 0.344360 0.320496
0.341095 0.348877 0.315186
0.413849 0.360138 0.328308
0.499084 0.380524 0.346039
0.589111 0.405609 0.371704
0.160767 0.432037 0.344757
0.201538 0.431366 0.344116
0.255035 0.434753 0.349243
0.310699 0.443848 0.349670
0.380981 0.458679 0.348969
0.469330 0.468750 0.353516
0.555023 0.489410 0.371552
0.652802 0.522308 0.404541
0.249146 0.562164 0.402832
0.291565 0.561005 0.403412
0.335907 0.567596 0.403809
0.391022 0.576904 0.405060
0.461670 0.592316 0.401306
0.543060 0.609894 0.404846
0.642700 0.637146 0.423004
0.754211 0.676239 0.453369
0.380432 0.735779 0.484863
0.416229 0.735962 0.484680
0.460541 0.744965 0.487274
0.525940 0.761566 0.490540
0.589294 0.778473 0.490540
0.670502 0.800781 0.491638
0.770264 0.830109 0.514954
0.883820 0.866302 0.542938
0.064972 0.091553 0.412384
0.111633 0.094055 0.408844
0.180603 0.096893 0.396820
0.248199 0.100098 0.377228
0.303589 0.109406 0.365845
0.367188 0.117126 0.364075
0.434906 0.129211 0.368683
0.513641 0.151764 0.379791
0.041138 0.143585 0.402008
0.103699 0.143585 0.400269
0.171844 0.141479 0.389923
0.237518 0.144714 0.377991
0.303589 0.153442 0.363770
0.370972 0.158844 0.364410
0.440002 0.173248 0.368591
0.518219 0.194519 0.383423
0.023651 0.200897 0.386139
0.084290 0.198029 0.386139
0.156952 0.200500 0.383667
0.234467 0.200897 0.377991
0.301483 0.206940 0.366211
0.369904 0.211761 0.365173
0.446136 0.227753 0.377014
0.528900 0.249329 0.392365
0.084229 0.262634 0.363525
0.117767 0.262421 0.365814
0.170898 0.263733 0.370178
0.233887 0.265259 0.372253
0.314392 0.272858 0.371735
0.386200 0.282257 0.376953
0.461456 0.296783 0.390076
0.547791 0.321167 0.407257
0.106140 0.338837 0.374542
0.153381 0.337677 0.371490
0.206482 0.341705 0.378143
0.264648 0.347229 0.383484
0.335388 0.351746 0.389587
0.410400 0.362427 0.398743
0.497925 0.383698 0.414246
0.592682 0.411987 0.434479
0.165161 0.435974 0.406433
0.205475 0.434937 0.407166
0.256989 0.439728 0.407471
0.316071 0.446381 0.414185
0.381836 0.455780 0.423187
0.468719 0.472778 0.424622
0.557434 0.495026 0.446686
0.649902 0.525269 0.471893
0.255066 0.565033 0.460083
0.298187 0.566711 0.462067
0.339294 0.568359 0.464355
0.400818 0.577301 0.470215
0.466492 0.593811 0.478516
0.547455 0.617950 0.477509
0.650024 0.645599 0.501007
0.750336 0.676575 0.523346
0.390137 0.739044 0.548523
0.428925 0.741180 0.550842
0.475250 0.744476 0.554596
0.534180 0.760345 0.563721
0.596649 0.777527 0.566681
0.681915 0.807861 0.573914
0.774323 0.835327 0.588409
0.888031 0.871765 0.612518
0.067535 0.093475 0.475677
0.114258 0.094238 0.474762
0.175049 0.096863 0.465973
0.241730 0.100342 0.447845
0.307159 0.109253 0.433990
0.365967 0.119080 0.423279
0.438202 0.133820 0.430603
0.516266 0.154388 0.442352
0.049561 0.141479 0.467438
0.095886 0.143951 0.466919
0.168762 0.141479 0.457336
0.241180 0.143982 0.448364
0.305878 0.151337 0.435730
0.363495 0.163208 0.423340
0.438965 0.175049 0.431915
0.519104 0.197906 0.442535
0.038727 0.200500 0.454285
0.086792 0.198364 0.451630
0.157074 0.200134 0.452484
0.231659 0.198761 0.450104
0.304321 0.206055 0.436340
0.370087 0.216034 0.431183
0.448975 0.233215 0.436981
0.531219 0.253998 0.451233
0.056152 0.263184 0.438568
0.098999 0.265472 0.446014
0.157379 0.267975 0.445648
0.235779 0.266602 0.444061
0.310699 0.270538 0.446381
0.385406 0.283142 0.438904
0.464813 0.300049 0.450317
0.552094 0.325623 0.467773
0.115112 0.339752 0.434143
0.154785 0.341522 0.436096
0.207214 0.343811 0.438782
0.262726 0.348694 0.447876
0.331787 0.356262 0.456604
0.411499 0.366028 0.459137
0.495392 0.387634 0.474579
0.589783 0.413452 0.492706
0.171936 0.437012 0.460999
0.212585 0.439148 0.462219
0.264313 0.443115 0.469086
0.323578 0.447968 0.472473
0.385895 0.460449 0.483551
0.466339 0.475922 0.496002
0.559967 0.502228 0.519562
0.654938 0.531342 0.542877
0.256561 0.569885 0.520172
0.301453 0.573456 0.522369
0.348541 0.575806 0.525452
0.406982 0.583344 0.532440
0.472870 0.597015 0.543793
0.557343 0.620544 0.561401
0.656036 0.652832 0.578613
0.757965 0.687714 0.608154
0.392914 0.744019 0.613495
0.432281 0.743530 0.613495
0.482086 0.753296 0.617340
0.544891 0.769012 0.628265
0.615692 0.783203 0.642456
0.694153 0.813263 0.661713
0.780701 0.843353 0.665314
0.892334 0.875946 0.692108
0.072601 0.093323 0.536072
0.116577 0.092651 0.532745
0.175049 0.094788 0.529205
0.236938 0.099487 0.519165
0.300751 0.107635 0.506653
0.373596 0.117310 0.494812
0.437469 0.138855 0.490723
0.514984 0.157806 0.501831
0.053619 0.140594 0.531281
0.102631 0.141479 0.530365
0.160461 0.143951 0.530182
0.236847 0.145233 0.517090
0.305908 0.150940 0.508270
0.373138 0.161285 0.497314
0.439697 0.179138 0.493744
0.520416 0.202118 0.506805
0.039276 0.200500 0.521362
0.086609 0.199615 0.520630
0.154388 0.199799 0.519196
0.230316 0.203369 0.516174
0.305115 0.204468 0.512085
0.378693 0.216949 0.502686
0.449371 0.236298 0.502869
0.532867 0.257935 0.514801
0.030762 0.267273 0.518188
0.086334 0.266571 0.514679
0.160004 0.266998 0.514496
0.239929 0.267700 0.512939
0.314056 0.274139 0.515442
0.392487 0.287598 0.516113
0.468231 0.304688 0.516937
0.555908 0.331909 0.529755
0.097198 0.343140 0.509430
0.141357 0.344910 0.512115
0.193939 0.345673 0.520081
0.258636 0.354401 0.527618
0.337280 0.361053 0.533722
0.420715 0.371674 0.539063
0.505463 0.395538 0.542755
0.591217 0.419647 0.560211
0.182861 0.442017 0.522766
0.220551 0.446472 0.529510
0.270508 0.449005 0.535583
0.329895 0.454895 0.540588
0.391449 0.468658 0.556702
0.467438 0.484467 0.572357
0.560181 0.505493 0.582153
0.660034 0.540649 0.605682
0.271851 0.574005 0.581024
0.310699 0.577393 0.584595
0.358551 0.580078 0.585358
0.419006 0.590515 0.595490
0.485504 0.604279 0.606995
0.563293 0.628326 0.625824
0.655762 0.653564 0.648132
0.761353 0.696899 0.687134
0.400909 0.752167 0.673309
0.447083 0.755493 0.677765
0.492645 0.764832 0.688599
0.553070 0.775085 0.694855
0.625183 0.791412 0.707123
0.706665 0.819427 0.731384
0.793915 0.848358 0.753693
0.894867 0.880463 0.768036
0.068237 0.094391 0.598480
0.116394 0.095703 0.595154
0.175201 0.096069 0.592102
0.240082 0.101227 0.586945
0.307159 0.110138 0.579834
0.371765 0.119965 0.568420
0.446838 0.139954 0.565002
0.521973 0.165070 0.563324
0.055359 0.140381 0.593689
0.104675 0.141479 0.592773
0.166382 0.144318 0.590851
0.236237 0.144684 0.588379
0.302948 0.153503 0.578247
0.374359 0.164642 0.569702
0.450378 0.182709 0.568359
0.527252 0.209106 0.569489
0.036377 0.201416 0.588379
0.099701 0.200500 0.585144
0.157959 0.200500 0.586395
0.231171 0.203552 0.585175
0.304077 0.210541 0.583954
0.381256 0.217194 0.576538
0.459686 0.237396 0.573669
0.536011 0.265106 0.579865
0.053894 0.266602 0.582245
0.101440 0.268188 0.584137
0.162811 0.269257 0.585419
0.237915 0.273590 0.587219
0.313995 0.278412 0.588867
0.396088 0.291077 0.590759
0.477173 0.307983 0.590485
0.565186 0.340881 0.600708
0.088715 0.347107 0.590637
0.132080 0.348328 0.594452
0.184235 0.352448 0.598236
0.261475 0.358368 0.598755
0.336823 0.364655 0.603851
0.424103 0.377441 0.615051
0.510895 0.399109 0.616425
0.603333 0.431305 0.627960
0.178375 0.451263 0.602783
0.215698 0.450500 0.603760
0.261871 0.455811 0.610931
0.328796 0.467743 0.623779
0.394897 0.475098 0.636261
0.473694 0.491821 0.649567
0.574097 0.515991 0.665497
0.667938 0.546661 0.676666
0.278748 0.581360 0.648804
0.319397 0.583710 0.650940
0.374756 0.590363 0.653320
0.433533 0.599854 0.663330
0.498474 0.614471 0.681305
0.574432 0.639709 0.704620
0.664795 0.668579 0.732086
0.771362 0.707581 0.752441
0.420380 0.766205 0.745728
0.465607 0.765289 0.743439
0.508911 0.772369 0.749573
0.571045 0.784424 0.758484
0.642761 0.804840 0.773407
0.714874 0.829468 0.793549
0.810944 0.859161 0.819031
0.899872 0.892914 0.853394
